src/assets/outline/CalendarAdd.svg

<svg width="24" height="24" viewBox="0 0 24 24"  xmlns="http://www.w3.org/2000/svg">
<path d="M8 5.75C7.59 5.75 7.25 5.41 7.25 5V2C7.25 1.59 7.59 1.25 8 1.25C8.41 1.25 8.75 1.59 8.75 2V5C8.75 5.41 8.41 5.75 8 5.75Z" />
<path d="M16 5.75C15.59 5.75 15.25 5.41 15.25 5V2C15.25 1.59 15.59 1.25 16 1.25C16.41 1.25 16.75 1.59 16.75 2V5C16.75 5.41 16.41 5.75 16 5.75Z" />
<path d="M8.5 14.5003C8.37 14.5003 8.24 14.4803 8.12 14.4203C8 14.3703 7.88999 14.3003 7.78999 14.2103C7.60999 14.0203 7.5 13.7603 7.5 13.5003C7.5 13.3703 7.53 13.2403 7.58 13.1203C7.63 13.0003 7.69999 12.8903 7.78999 12.7903C7.88999 12.7003 8 12.6303 8.12 12.5803C8.48 12.4303 8.93001 12.5103 9.21001 12.7903C9.30001 12.8903 9.37 13.0003 9.42 13.1203C9.47 13.2403 9.5 13.3703 9.5 13.5003C9.5 13.7603 9.39001 14.0203 9.21001 14.2103C9.02001 14.3903 8.76 14.5003 8.5 14.5003Z" />
<path d="M12 14.4999C11.74 14.4999 11.48 14.3899 11.29 14.2099C11.2 14.1099 11.13 13.9999 11.08 13.8799C11.03 13.7599 11 13.6299 11 13.4999C11 13.2399 11.11 12.9799 11.29 12.7899C11.57 12.5099 12.01 12.4199 12.38 12.5799C12.5 12.6299 12.61 12.6999 12.71 12.7899C12.89 12.9799 13 13.2399 13 13.4999C13 13.6299 12.98 13.7599 12.92 13.8799C12.87 13.9999 12.8 14.1099 12.71 14.2099C12.61 14.2999 12.5 14.3699 12.38 14.4199C12.26 14.4799 12.13 14.4999 12 14.4999Z" />
<path d="M8.5 17.9999C8.37 17.9999 8.24 17.9699 8.12 17.9199C8 17.8699 7.88999 17.7999 7.78999 17.7099C7.60999 17.5199 7.5 17.2699 7.5 16.9999C7.5 16.8699 7.53 16.7399 7.58 16.6199C7.63 16.4899 7.69999 16.3899 7.78999 16.2899C7.88999 16.1999 8 16.1299 8.12 16.0799C8.48 15.9199 8.93001 16.0099 9.21001 16.2899C9.30001 16.3899 9.37 16.4899 9.42 16.6199C9.47 16.7399 9.5 16.8699 9.5 16.9999C9.5 17.2699 9.39001 17.5199 9.21001 17.7099C9.02001 17.8899 8.76 17.9999 8.5 17.9999Z" />
<path d="M20.5 9.83984H3.5C3.09 9.83984 2.75 9.49984 2.75 9.08984C2.75 8.67984 3.09 8.33984 3.5 8.33984H20.5C20.91 8.33984 21.25 8.67984 21.25 9.08984C21.25 9.49984 20.91 9.83984 20.5 9.83984Z" />
<path d="M18 23.75C15.38 23.75 13.25 21.62 13.25 19C13.25 16.38 15.38 14.25 18 14.25C20.62 14.25 22.75 16.38 22.75 19C22.75 21.62 20.62 23.75 18 23.75ZM18 15.75C16.21 15.75 14.75 17.21 14.75 19C14.75 20.79 16.21 22.25 18 22.25C19.79 22.25 21.25 20.79 21.25 19C21.25 17.21 19.79 15.75 18 15.75Z" />
<path d="M19.49 19.7998H16.5C16.09 19.7998 15.75 19.4598 15.75 19.0498C15.75 18.6398 16.09 18.2998 16.5 18.2998H19.49C19.9 18.2998 20.24 18.6398 20.24 19.0498C20.24 19.4598 19.91 19.7998 19.49 19.7998Z" />
<path d="M18 21.3298C17.59 21.3298 17.25 20.9898 17.25 20.5798V17.5898C17.25 17.1798 17.59 16.8398 18 16.8398C18.41 16.8398 18.75 17.1798 18.75 17.5898V20.5798C18.75 20.9898 18.41 21.3298 18 21.3298Z" />
<path d="M15.37 22.75H8C4.35 22.75 2.25 20.65 2.25 17V8.5C2.25 4.85 4.35 2.75 8 2.75H16C19.65 2.75 21.75 4.85 21.75 8.5V16.36C21.75 16.67 21.56 16.95 21.26 17.06C20.97 17.17 20.64 17.09 20.43 16.85C19.81 16.15 18.92 15.75 17.99 15.75C16.2 15.75 14.74 17.21 14.74 19C14.74 19.59 14.9 20.17 15.21 20.67C15.38 20.97 15.6 21.22 15.84 21.43C16.08 21.63 16.17 21.96 16.06 22.26C15.97 22.55 15.69 22.75 15.37 22.75ZM8 4.25C5.14 4.25 3.75 5.64 3.75 8.5V17C3.75 19.86 5.14 21.25 8 21.25H13.82C13.45 20.57 13.25 19.8 13.25 19C13.25 16.38 15.38 14.25 18 14.25C18.79 14.25 19.57 14.45 20.25 14.82V8.5C20.25 5.64 18.86 4.25 16 4.25H8Z" />
</svg>

<?xml version="1.0" encoding="UTF-8"?>
<svg width="24" height="24" viewBox="0 0 24 24" xmlns="http://www.w3.org/2000/svg">
 <path d="m8 5.75c-0.41 0-0.75-0.34-0.75-0.75v-3c0-0.41 0.34-0.75 0.75-0.75s0.75 0.34 0.75 0.75v3c0 0.41-0.34 0.75-0.75 0.75z"/>
 <path d="m16 5.75c-0.41 0-0.75-0.34-0.75-0.75v-3c0-0.41 0.34-0.75 0.75-0.75s0.75 0.34 0.75 0.75v3c0 0.41-0.34 0.75-0.75 0.75z"/>
 <path d="m8.5 14.5c-0.13 0-0.26-0.02-0.38-0.08-0.12-0.05-0.23001-0.12-0.33001-0.21-0.18-0.19-0.28999-0.45-0.28999-0.71 0-0.13 0.03-0.26 0.08-0.38s0.11999-0.23 0.20999-0.33c0.1-0.09 0.21001-0.16 0.33001-0.21 0.36-0.15 0.81001-0.07 1.09 0.21 0.09 0.1 0.15999 0.21 0.20999 0.33s0.08 0.25 0.08 0.38c0 0.26-0.10999 0.52-0.28999 0.71-0.19 0.18-0.45001 0.29-0.71001 0.29z"/>
 <path d="m12 14.5c-0.26 0-0.52-0.11-0.71-0.29-0.09-0.1-0.16-0.21-0.21-0.33s-0.08-0.25-0.08-0.38c0-0.26 0.11-0.52 0.29-0.71 0.28-0.28 0.72-0.37 1.09-0.21 0.12 0.05 0.23 0.12 0.33 0.21 0.18 0.19 0.29 0.45 0.29 0.71 0 0.13-0.02 0.26-0.08 0.38-0.05 0.12-0.12 0.23-0.21 0.33-0.1 0.09-0.21 0.16-0.33 0.21-0.12 0.06-0.25 0.08-0.38 0.08z"/>
 <path d="m8.5 18c-0.13 0-0.26-0.03-0.38-0.08s-0.23001-0.12-0.33001-0.21c-0.18-0.19-0.28999-0.44-0.28999-0.71 0-0.13 0.03-0.26 0.08-0.38 0.05-0.13 0.11999-0.23 0.20999-0.33 0.1-0.09 0.21001-0.16 0.33001-0.21 0.36-0.16 0.81001-0.07 1.09 0.21 0.09 0.1 0.15999 0.2 0.20999 0.33 0.05 0.12 0.08 0.25 0.08 0.38 0 0.27-0.10999 0.52-0.28999 0.71-0.19 0.18-0.45001 0.29-0.71001 0.29z"/>
 <path d="m20.5 9.8398h-17c-0.41 0-0.75-0.34-0.75-0.75s0.34-0.75 0.75-0.75h17c0.41 0 0.75 0.34 0.75 0.75s-0.34 0.75-0.75 0.75z"/>
 <path d="m18 23.75c-2.62 0-4.75-2.13-4.75-4.75s2.13-4.75 4.75-4.75 4.75 2.13 4.75 4.75-2.13 4.75-4.75 4.75zm0-8c-1.79 0-3.25 1.46-3.25 3.25s1.46 3.25 3.25 3.25 3.25-1.46 3.25-3.25-1.46-3.25-3.25-3.25z"/>
 <path d="m19.49 19.8h-2.99c-0.41 0-0.75-0.34-0.75-0.75s0.34-0.75 0.75-0.75h2.99c0.41 0 0.75 0.34 0.75 0.75s-0.33 0.75-0.75 0.75z"/>
 <path d="m18 21.33c-0.41 0-0.75-0.34-0.75-0.75v-2.99c0-0.41 0.34-0.75 0.75-0.75s0.75 0.34 0.75 0.75v2.99c0 0.41-0.34 0.75-0.75 0.75z"/>
 <path d="m15.37 22.75h-7.37c-3.65 0-5.75-2.1-5.75-5.75v-8.5c0-3.65 2.1-5.75 5.75-5.75h8c3.65 0 5.75 2.1 5.75 5.75v7.86c0 0.31-0.19 0.59-0.49 0.7-0.29 0.11-0.62 0.03-0.83-0.21-0.62-0.7-1.51-1.1-2.44-1.1-1.79 0-3.25 1.46-3.25 3.25 0 0.59 0.16 1.17 0.47 1.67 0.17 0.3 0.39 0.55 0.63 0.76 0.24 0.2 0.33 0.53 0.22 0.83-0.09 0.29-0.37 0.49-0.69 0.49zm-7.37-18.5c-2.86 0-4.25 1.39-4.25 4.25v8.5c0 2.86 1.39 4.25 4.25 4.25h5.82c-0.37-0.68-0.57-1.45-0.57-2.25 0-2.62 2.13-4.75 4.75-4.75 0.79 0 1.57 0.2 2.25 0.57v-6.32c0-2.86-1.39-4.25-4.25-4.25h-8z"/>
</svg>
